svg/u26b0.svg

<svg viewBox="0 0 128 128" xmlns="http://www.w3.org/2000/svg">
  <path d="M121.7,82.43v18.86c0,1.37-0.65,2.66-1.75,3.47l-23.29,17.27c-0.31,0.23-0.72,0.26-1.06,0.09 l-0.9-0.46v-19.2L121.7,82.43z" fill="#522F21"/>
  <path d="M5.02,53.35l16.48,30.31c0.17,0.32,0.44,0.58,0.77,0.75l0.13-19.14L4.6,33.96v17.75 C4.6,52.28,4.74,52.84,5.02,53.35z" fill="#AB664B"/>
  <path d="M96.16,121.51v-19.08l-74.4-38.25v19.05c0,0.57,0.32,1.09,0.82,1.35l72.78,37.42 C95.73,122.18,96.16,121.92,96.16,121.51z" fill="#874D36"/>
  <path d="M120.79,76.68L74.23,23.91c-0.43-0.49-0.99-0.85-1.61-1.05L33.61,10.38 c-1.11-0.36-2.33-0.15-3.26,0.54c0,0-23.47,17.44-23.59,17.55L6.72,28.5c-2.12,1.52-3.52,5.31-1.75,8.61l14.44,26.56 c0.35,0.64,0.88,1.16,1.53,1.49l72.76,36.92c1.23,0.63,2.71,0.51,3.82-0.31l24.7-18.28C123.76,82.35,123.8,80,120.79,76.68z" fill="#C87D5E"/>
  <path d="M95.79,90.7L27.26,55.47L14.09,31.25l19.36-14.36l36.4,11.64l43.42,49.21L95.79,90.7z M31.04,52.15 l65.64,33.23l12.09-8.97L68.43,30.7L33.91,19.67L19.28,30.52L31.04,52.15z" fill="#AB664B"/>
  <polygon points="69.85,28.53 33.45,16.89 33.89,19.69 33.91,19.67 68.43,30.7 108.77,76.42 113.27,77.74 " fill="#7A4631"/>
  <path d="M42.51,86.7l0.6-4.3l-3.69,2.62l-5.83-3l-0.22-4.54l-3.52,2.62l0,0c-0.74-0.38-1.64-0.09-2.02,0.65 c-0.38,0.74-0.09,1.64,0.65,2.02l12.29,6.32c0.22,0.11,0.45,0.17,0.68,0.17c0.54,0,1.07-0.3,1.34-0.81 C43.1,87.85,42.96,87.15,42.51,86.7z" fill="#522F21"/>
  <path d="M78.47,105.1l0.3-4.6c0,0-3.28,2.37-3.8,2.8l-15.29-7.86v-4.25c0,0-2.46,1.79-3.4,2.5l-0.88-0.45 c-0.74-0.38-1.64-0.09-2.02,0.65s-0.09,1.64,0.65,2.02l23.07,11.86c0.22,0.11,0.45,0.17,0.68,0.17c0.54,0,1.07-0.3,1.33-0.81 C79.5,106.39,79.21,105.48,78.47,105.1z" fill="#522F21"/>
  <path d="M56.22,95.22c-0.28,0-0.57-0.08-0.82-0.25c-0.69-0.45-0.61-1.07-0.16-1.77l1.96-2.99 c0.45-0.69,1.29-1.06,1.98-0.61c0.69,0.45,0.71,1.25,0.26,1.94l-1.96,2.99C57.19,94.98,56.71,95.22,56.22,95.22z" fill="#E2A610"/>
  <path d="M39.55,86.67c-0.28,0-0.57-0.08-0.82-0.25c-0.69-0.45-0.61-1.07-0.16-1.77l1.96-2.99 c0.45-0.69,1.29-1.06,1.98-0.61c0.69,0.45,0.71,1.25,0.26,1.94l-1.96,2.99C40.51,86.43,40.03,86.67,39.55,86.67z" fill="#E2A610"/>
  <path d="M29.91,81.71c-0.28,0-0.57-0.08-0.82-0.25c-0.69-0.45-0.61-1.07-0.16-1.77l1.96-2.99 c0.45-0.69,1.29-1.06,1.98-0.61c0.69,0.45,0.71,1.25,0.26,1.94l-1.96,2.99C30.87,81.47,30.39,81.71,29.91,81.71z" fill="#E2A610"/>
  <path d="M75.24,104.93c-0.28,0-0.57-0.08-0.82-0.25c-0.69-0.45-0.61-1.07-0.16-1.77l1.96-2.99 c0.45-0.69,1.29-1.06,1.98-0.61c0.69,0.45,0.71,1.25,0.26,1.94l-1.96,2.99C76.21,104.69,75.73,104.93,75.24,104.93z" fill="#E2A610"/>
  <path d="M77.28,106.05c-0.23,0-0.47-0.05-0.68-0.17L53.52,94.02c-0.74-0.38-1.03-1.28-0.65-2.02 s1.28-1.03,2.02-0.65l23.07,11.86c0.74,0.38,1.03,1.28,0.65,2.02C78.35,105.76,77.82,106.05,77.28,106.05z" fill="#FFCA28"/>
  <path d="M40.95,87.38c-0.23,0-0.46-0.05-0.68-0.17l-12.29-6.32c-0.74-0.38-1.03-1.28-0.65-2.02 c0.38-0.74,1.28-1.03,2.02-0.65l12.29,6.32c0.74,0.38,1.03,1.28,0.65,2.02C42.02,87.08,41.5,87.38,40.95,87.38z" fill="#FFCA28"/>
  <polygon points="14.09,31.25 33.45,16.89 33.91,19.67 19.28,30.52 31.04,52.15 27.26,55.47 " opacity="0.8" fill="#FFCC80"/>
  <g>
    <path d="M94.06,98.03L23.2,62.08c-0.63-0.32-1.15-0.83-1.49-1.45L5.17,30.26c-1.1,1.85-1.47,4.48-0.19,6.85 l14.44,26.56c0.35,0.64,0.88,1.16,1.53,1.49l72.76,36.92c1.23,0.63,2.71,0.51,3.82-0.31V97.9C96.47,98.54,95.16,98.6,94.06,98.03z" fill="#AB664B"/>
    <path d="M21.72,60.63L5.17,30.25c-1.1,1.85-1.47,4.48-0.19,6.86l14.44,26.56 c0.35,0.64,0.88,1.16,1.53,1.49c0,0-0.91-2.47,1.53-3.6C22.17,61.3,21.91,60.99,21.72,60.63z" opacity="0.8" fill="#FFCC80"/>
    <path d="M122.55,79.1c-0.17,0.33-0.41,0.61-0.72,0.83l-24.05,17.8c-0.51,0.38-1.1,0.6-1.71,0.67 c-0.09,0.07-0.19,0.15-0.27,0.21c1.44,0.93,0.95,3.45,0.36,3.79c0.48-0.11,0.94-0.32,1.36-0.62l24.7-18.28 C123.41,82.61,123.62,80.83,122.55,79.1z" fill="#874D36"/>
  </g>
</svg>

<svg viewBox="0 0 128 128" xmlns="http://www.w3.org/2000/svg">
  <defs/>
  <path d="M121.7,82.43 L121.7,101.29 C121.7,102.66 121.05,103.95 119.95,104.76 L96.66,122.03 C96.35,122.26 95.94,122.29 95.6,122.12 L94.7,121.66 L94.7,102.46 L121.7,82.43 Z" fill="#522F21"/>
  <path d="M5.02,53.35 L21.5,83.66 C21.67,83.98 21.94,84.24 22.27,84.41 L22.4,65.27 L4.6,33.96 L4.6,51.71 C4.6,52.28 4.74,52.84 5.02,53.35 Z" fill="#AB664B"/>
  <path d="M96.16,121.51 L96.16,102.43 L21.76,64.18 L21.76,83.23 C21.76,83.8 22.08,84.32 22.58,84.58 L95.36,122 C95.73,122.18 96.16,121.92 96.16,121.51 Z" fill="#874D36"/>
  <path d="M120.79,76.68 L74.23,23.91 C73.8,23.42 73.24,23.06 72.62,22.86 L33.61,10.38 C32.5,10.02 31.28,10.23 30.35,10.92 C30.35,10.92 6.88,28.36 6.76,28.47 L6.72,28.5 C4.6,30.02 3.2,33.81 4.97,37.11 L19.41,63.67 C19.76,64.31 20.29,64.83 20.94,65.16 L93.7,102.08 C94.93,102.71 96.41,102.59 97.52,101.77 L122.22,83.49 C123.76,82.35 123.8,80 120.79,76.68 Z" fill="#C87D5E"/>
  <path d="M95.79,90.7 L27.26,55.47 L14.09,31.25 L33.45,16.89 L69.85,28.53 L113.27,77.74 L95.79,90.7 Z M31.04,52.15 L96.68,85.38 L108.77,76.41 L68.43,30.7 L33.91,19.67 L19.28,30.52 L31.04,52.15 Z" fill="#AB664B"/>
  <path d="M69.85,28.53 L33.45,16.89 L33.89,19.69 L33.91,19.67 L68.43,30.7 L108.77,76.42 L113.27,77.74 Z" fill="#7A4631"/>
  <path d="M42.51,86.7 L43.11,82.4 L39.42,85.02 L33.59,82.02 L33.37,77.48 L29.85,80.1 L29.85,80.1 C29.11,79.72 28.21,80.01 27.83,80.75 C27.45,81.49 27.74,82.39 28.48,82.77 L40.77,89.09 C40.99,89.2 41.22,89.26 41.45,89.26 C41.99,89.26 42.52,88.96 42.79,88.45 C43.1,87.85 42.96,87.15 42.51,86.7 Z" fill="#522F21"/>
  <path d="M78.47,105.1 L78.77,100.5 C78.77,100.5 75.49,102.87 74.97,103.3 L59.68,95.44 L59.68,91.19 C59.68,91.19 57.22,92.98 56.28,93.69 L55.4,93.24 C54.66,92.86 53.76,93.15 53.38,93.89 C53,94.63 53.29,95.53 54.03,95.91 L77.1,107.77 C77.32,107.88 77.55,107.94 77.78,107.94 C78.32,107.94 78.85,107.64 79.11,107.13 C79.5,106.39 79.21,105.48 78.47,105.1 Z" fill="#522F21"/>
  <path d="M56.22,95.22 C55.94,95.22 55.65,95.14 55.4,94.97 C54.71,94.52 54.79,93.9 55.24,93.2 L57.2,90.21 C57.65,89.52 58.49,89.15 59.18,89.6 C59.87,90.05 59.89,90.85 59.44,91.54 L57.48,94.53 C57.19,94.98 56.71,95.22 56.22,95.22 Z" fill="#E2A610"/>
  <path d="M39.55,86.67 C39.27,86.67 38.98,86.59 38.73,86.42 C38.04,85.97 38.12,85.35 38.57,84.65 L40.53,81.66 C40.98,80.97 41.82,80.6 42.51,81.05 C43.2,81.5 43.22,82.3 42.77,82.99 L40.81,85.98 C40.51,86.43 40.03,86.67 39.55,86.67 Z" fill="#E2A610"/>
  <path d="M29.91,81.71 C29.63,81.71 29.34,81.63 29.09,81.46 C28.4,81.01 28.48,80.39 28.93,79.69 L30.89,76.7 C31.34,76.01 32.18,75.64 32.87,76.09 C33.56,76.54 33.58,77.34 33.13,78.03 L31.17,81.02 C30.87,81.47 30.39,81.71 29.91,81.71 Z" fill="#E2A610"/>
  <path d="M75.24,104.93 C74.96,104.93 74.67,104.85 74.42,104.68 C73.73,104.23 73.81,103.61 74.26,102.91 L76.22,99.92 C76.67,99.23 77.51,98.86 78.2,99.31 C78.89,99.76 78.91,100.56 78.46,101.25 L76.5,104.24 C76.21,104.69 75.73,104.93 75.24,104.93 Z" fill="#E2A610"/>
  <path d="M77.28,106.05 C77.05,106.05 76.81,106 76.6,105.88 L53.52,94.02 C52.78,93.64 52.49,92.74 52.87,92 C53.25,91.26 54.15,90.97 54.89,91.35 L77.96,103.21 C78.7,103.59 78.99,104.49 78.61,105.23 C78.35,105.76 77.82,106.05 77.28,106.05 Z" fill="#FFCA28"/>
  <path d="M40.95,87.38 C40.72,87.38 40.49,87.33 40.27,87.21 L27.98,80.89 C27.24,80.51 26.95,79.61 27.33,78.87 C27.71,78.13 28.61,77.84 29.35,78.22 L41.64,84.54 C42.38,84.92 42.67,85.82 42.29,86.56 C42.02,87.08 41.5,87.38 40.95,87.38 Z" fill="#FFCA28"/>
  <path d="M14.09,31.25 L33.45,16.89 L33.91,19.67 L19.28,30.52 L31.04,52.15 L27.26,55.47 Z" fill="#FFCC80" opacity="0.8"/>
  <path d="M94.06,98.03 L23.2,62.08 C22.57,61.76 22.05,61.25 21.71,60.63 L5.17,30.26 C4.07,32.11 3.7,34.74 4.98,37.11 L19.42,63.67 C19.77,64.31 20.3,64.83 20.95,65.16 L93.71,102.08 C94.94,102.71 96.42,102.59 97.53,101.77 L97.53,97.9 C96.47,98.54 95.16,98.6 94.06,98.03 Z" fill="#AB664B"/>
  <path d="M21.72,60.63 L5.17,30.25 C4.07,32.1 3.7,34.73 4.98,37.11 L19.42,63.67 C19.77,64.31 20.3,64.83 20.95,65.16 C20.95,65.16 20.04,62.69 22.48,61.56 C22.17,61.3 21.91,60.99 21.72,60.63 Z" fill="#FFCC80" opacity="0.8"/>
  <path d="M122.55,79.1 C122.38,79.43 122.14,79.71 121.83,79.93 L97.78,97.73 C97.27,98.11 96.68,98.33 96.07,98.4 C95.98,98.47 95.88,98.55 95.8,98.61 C97.24,99.54 96.75,102.06 96.16,102.4 C96.64,102.29 97.1,102.08 97.52,101.78 L122.22,83.5 C123.41,82.61 123.62,80.83 122.55,79.1 Z" fill="#874D36"/>
</svg>
